X: 1
T:Danny Frasers
R:jig
C:Jerry Holland
O:20th Century Cape Breton
S:Tune of the Month, February 1999
A:<http://www.jerryholland.com>
N:Contacts ...
N:Bookings,Mechanicals etc.
N:..... Jerry Holland <jerry@cranfordpub.com>
N:Tune books, related recordings
N:..... Cranford Publications <http://www.cranfordpub.com>
B:Previously Unpublished.
H:Copyrights - Publisher:Fiddlesticks Music (SOCAN).
Z:This abc transcription is for personal use only
Z:provided this notice remains attached.
Z:Used by permission of the composer and publisher.
Z:Paul Stewart Cranford 
L:1/8
Q:300
M:6/8
K:Bb
B,DF B2 d|cBc dba|gfd Bcd|cBc dBG|!
B,DF B2 d|cBc dba|gfd Bcd|[1cBB B3:|[2cBB B2||!
|:b|gff fdB|cBc d2b|gff fBc|dcc c2 b|!
gff fdB|cBc dba|gfd Bcd|[1cBB B2:|[2cBc dBG|]!
